img/ui/icons/History.svg

<svg width="24" height="25" viewBox="0 0 24 25" fill="none" xmlns="http://www.w3.org/2000/svg">
<path fill-rule="evenodd" clip-rule="evenodd" d="M5.07934 5.38543C8.87434 1.59543 15.0443 1.63543 18.8623 5.45443C22.6823 9.27443 22.7223 15.4474 18.9263 19.2424C15.1303 23.0374 8.95834 22.9984 5.13834 19.1784C4.06371 18.1084 3.25177 16.8039 2.76629 15.3672C2.28081 13.9306 2.13501 12.4009 2.34034 10.8984C2.36726 10.7012 2.47141 10.5228 2.62988 10.4024C2.78835 10.282 2.98815 10.2295 3.18534 10.2564C3.38253 10.2833 3.56095 10.3875 3.68134 10.546C3.80174 10.7044 3.85426 10.9042 3.82734 11.1014C3.65302 12.3747 3.77642 13.6711 4.18782 14.8887C4.59923 16.1063 5.28744 17.2118 6.19834 18.1184C9.44334 21.3624 14.6663 21.3814 17.8663 18.1824C21.0653 14.9824 21.0463 9.75943 17.8023 6.51443C14.5593 3.27243 9.33934 3.25143 6.13934 6.44643L6.88734 6.44943C6.98583 6.44989 7.08327 6.46974 7.17409 6.50786C7.2649 6.54597 7.34733 6.6016 7.41664 6.67157C7.48596 6.74154 7.54082 6.82448 7.57809 6.91565C7.61536 7.00682 7.6343 7.10444 7.63384 7.20293C7.63338 7.30142 7.61353 7.39886 7.57541 7.48967C7.53729 7.58049 7.48166 7.66291 7.41169 7.73223C7.34173 7.80155 7.25879 7.85641 7.16762 7.89368C7.07645 7.93094 6.97883 7.94989 6.88034 7.94943L4.33434 7.93743C4.13664 7.93637 3.94735 7.8573 3.80765 7.71741C3.66795 7.57752 3.58913 7.38813 3.58834 7.19043L3.57534 4.64643C3.57481 4.54794 3.59369 4.45031 3.6309 4.35911C3.6681 4.26792 3.72291 4.18494 3.79218 4.11493C3.86145 4.04491 3.94384 3.98923 4.03463 3.95105C4.12542 3.91287 4.22285 3.89295 4.32134 3.89243C4.41983 3.8919 4.51746 3.91078 4.60866 3.94799C4.69985 3.98519 4.78283 4.04 4.85284 4.10927C4.92286 4.17854 4.97854 4.26093 5.01672 4.35172C5.05489 4.44251 5.07481 4.53994 5.07534 4.63843L5.07934 5.38543ZM11.9993 7.56543C12.1983 7.56543 12.389 7.64445 12.5297 7.7851C12.6703 7.92575 12.7493 8.11652 12.7493 8.31543V12.0054L15.0303 14.2854C15.102 14.3546 15.1592 14.4373 15.1985 14.5288C15.2379 14.6203 15.2586 14.7187 15.2595 14.8183C15.2604 14.9179 15.2415 15.0166 15.2038 15.1088C15.1662 15.201 15.1105 15.2848 15.0401 15.3552C14.9698 15.4257 14.886 15.4814 14.7939 15.5192C14.7017 15.5569 14.603 15.5759 14.5034 15.5751C14.4038 15.5743 14.3054 15.5536 14.2139 15.5144C14.1223 15.4751 14.0396 15.418 13.9703 15.3464L11.2503 12.6264V8.31643C11.2503 8.11752 11.3294 7.92675 11.47 7.7861C11.6107 7.64545 11.8014 7.56643 12.0003 7.56643" fill="currentColor"/>
</svg>

<svg width="24" height="25" fill="none" xmlns="http://www.w3.org/2000/svg"><path fill-rule="evenodd" clip-rule="evenodd" d="M5.08 5.385c3.794-3.79 9.964-3.75 13.782.07 3.82 3.82 3.86 9.992.064 13.787s-9.968 3.756-13.788-.064a9.81 9.81 0 0 1-2.798-8.28.75.75 0 1 1 1.487.203 8.31 8.31 0 0 0 2.371 7.017c3.245 3.244 8.468 3.263 11.668.064 3.2-3.2 3.18-8.423-.064-11.668C14.56 3.272 9.34 3.251 6.14 6.446l.748.003a.75.75 0 1 1-.007 1.5l-2.546-.012a.75.75 0 0 1-.746-.747l-.013-2.544a.75.75 0 1 1 1.5-.008l.004.747ZM12 7.565a.75.75 0 0 1 .75.75v3.69l2.28 2.28a.75.75 0 1 1-1.06 1.061l-2.72-2.72v-4.31a.75.75 0 0 1 .75-.75" fill="currentColor"/></svg>
